X:959
T:Aada (XA 29)
R:Aada
C:Tradicional
S:Msica Tradicional Asturiana, (C) Tello & Tito. Asturies, 2001.
S:http://pagina.de/MusTradAst <telloytito@asturies.org>
A:Asturies
Z:Mtodu de Xuacu Amieva 29
M:3/8
L:1/8
Q:3/8=42
K:Cm
|C2 E|GGF|GEF|GAG|[1 F3-|F3 :|[2 F3|E2 ~D|
|C3-|CFF|E2 ~D|C3-|C3|G2 ~F|EFF|E2 ~D|C3-|C3|
